;FLAVOR:Marlin
;TIME:12399
;Filament used: 9.33606m
;Layer height: 0.2
;MINX:26.6
;MINY:1.6
;MINZ:0.2
;MAXX:223.4
;MAXY:198.4
;MAXZ:5
;Generated with Cura_SteamEngine 4.3.0
M140 S60
M105
M190 S60
M104 S210
M105
M109 S210
M82 ;absolute extrusion mode
; -- START GCODE -- 
M4002 P1 ;set heat program 1 
M1203 A88 D66 F1200 ;set higher accel and decel 
G28 X0 Y0 ;home XY 
G28 Z0 ;home Z
G91 ;set relative movements 
G0 F100 ;speed 100mm/sec 
G0 E20 ;extrude 20mm of filament
G90 ;absolute movements 
; -- end of START GCODE --
G92 E0
G92 E0
G1 F1800 E-0.6
;LAYER_COUNT:25
;LAYER:0
M107
G0 F3600 X26.957 Y7.066 Z0.2
;TYPE:SKIRT
G1 F1800 E0
G1 F1500 X27.231 Y6.326 E0.02625
G1 X27.579 Y5.617 E0.05251
G1 X27.997 Y4.946 E0.07881
G1 X28.48 Y4.322 E0.10505
G1 X29.023 Y3.749 E0.13131
G1 X29.622 Y3.234 E0.15758
G1 X30.27 Y2.783 E0.18384
G1 X30.961 Y2.399 E0.21014
G1 X31.686 Y2.087 E0.23639
G1 X32.439 Y1.85 E0.26264
G1 X33.213 Y1.691 E0.28892
G1 X33.998 Y1.61 E0.31517
G1 X34.4 Y1.6 E0.32855
G1 X215.6 Y1.6 E6.35528
G1 X216.389 Y1.64 E6.38156
G1 X217.169 Y1.759 E6.4078
G1 X217.934 Y1.957 E6.43408
G1 X218.674 Y2.231 E6.46033
G1 X219.383 Y2.579 E6.4866
G1 X220.054 Y2.997 E6.51289
G1 X220.678 Y3.48 E6.53914
G1 X221.251 Y4.023 E6.56539
G1 X221.766 Y4.622 E6.59167
G1 X222.217 Y5.27 E6.61793
G1 X222.601 Y5.961 E6.64422
G1 X222.913 Y6.686 E6.67047
G1 X223.15 Y7.439 E6.69673
G1 X223.309 Y8.213 E6.72301
G1 X223.39 Y8.998 E6.74926
G1 X223.4 Y9.4 E6.76263
G1 X223.4 Y190.6 E12.78937
G1 X223.36 Y191.389 E12.81564
G1 X223.241 Y192.169 E12.84189
G1 X223.043 Y192.934 E12.86817
G1 X222.769 Y193.674 E12.89441
G1 X222.421 Y194.383 E12.92068
G1 X222.003 Y195.054 E12.94698
G1 X221.52 Y195.678 E12.97322
G1 X220.977 Y196.251 E12.99948
G1 X220.378 Y196.766 E13.02575
G1 X219.73 Y197.217 E13.05201
G1 X219.039 Y197.601 E13.0783
G1 X218.314 Y197.913 E13.10456
G1 X217.561 Y198.15 E13.13081
G1 X216.787 Y198.309 E13.15709
G1 X216.002 Y198.39 E13.18334
G1 X215.6 Y198.4 E13.19672
G1 X34.4 Y198.4 E19.22345
G1 X33.611 Y198.36 E19.24973
G1 X32.831 Y198.241 E19.27597
G1 X32.066 Y198.043 E19.30225
G1 X31.326 Y197.769 E19.3285
G1 X30.617 Y197.421 E19.35477
G1 X29.946 Y197.003 E19.38106
G1 X29.322 Y196.52 E19.40731
G1 X28.749 Y195.977 E19.43356
G1 X28.234 Y195.378 E19.45984
G1 X27.783 Y194.73 E19.4861
G1 X27.399 Y194.039 E19.51239
G1 X27.087 Y193.314 E19.53864
G1 X26.85 Y192.561 E19.5649
G1 X26.691 Y191.787 E19.59118
G1 X26.61 Y191.002 E19.61743
G1 X26.6 Y190.6 E19.6308
G1 X26.6 Y9.4 E25.65754
G1 X26.64 Y8.611 E25.68381
G1 X26.759 Y7.831 E25.71006
G1 X26.957 Y7.066 E25.73634
G0 F3600 X27.357 Y7.129
G1 F1500 X27.631 Y6.41 E25.76193
G1 X27.978 Y5.724 E25.7875
G1 X28.394 Y5.077 E25.81308
G1 X28.875 Y4.477 E25.83866
G1 X29.416 Y3.93 E25.86425
G1 X30.011 Y3.442 E25.88984
G1 X30.653 Y3.019 E25.91541
G1 X31.336 Y2.664 E25.94102
G1 X32.051 Y2.383 E25.96657
G1 X32.793 Y2.177 E25.99218
G1 X33.551 Y2.049 E26.01775
G1 X34.4 Y2 E26.04603
G1 X215.6 Y2 E32.07277
G1 X216.368 Y2.04 E32.09835
G1 X217.128 Y2.159 E32.12393
G1 X217.871 Y2.357 E32.14951
G1 X218.59 Y2.631 E32.1751
G1 X219.276 Y2.978 E32.20067
G1 X219.923 Y3.394 E32.22625
G1 X220.523 Y3.875 E32.25183
G1 X221.07 Y4.416 E32.27742
G1 X221.558 Y5.011 E32.30301
G1 X221.981 Y5.653 E32.32858
G1 X222.336 Y6.336 E32.35419
G1 X222.617 Y7.051 E32.37974
G1 X222.823 Y7.793 E32.40535
G1 X222.951 Y8.551 E32.43092
G1 X223 Y9.4 E32.4592
G1 X223 Y190.6 E38.48594
G1 X222.96 Y191.368 E38.51152
G1 X222.841 Y192.128 E38.5371
G1 X222.643 Y192.871 E38.56268
G1 X222.369 Y193.59 E38.58827
G1 X222.022 Y194.276 E38.61384
G1 X221.606 Y194.923 E38.63942
G1 X221.125 Y195.523 E38.665
G1 X220.584 Y196.07 E38.69059
G1 X219.989 Y196.558 E38.71618
G1 X219.347 Y196.981 E38.74175
G1 X218.664 Y197.336 E38.76736
G1 X217.949 Y197.617 E38.79291
G1 X217.207 Y197.823 E38.81852
G1 X216.449 Y197.951 E38.84409
G1 X215.6 Y198 E38.87237
G1 X34.4 Y198 E44.89911
G1 X33.632 Y197.96 E44.92469
G1 X32.872 Y197.841 E44.95027
G1 X32.129 Y197.643 E44.97585
G1 X31.41 Y197.369 E45.00144
G1 X30.724 Y197.022 E45.02701
G1 X30.077 Y196.606 E45.05259
G1 X29.477 Y196.125 E45.07817
G1 X28.93 Y195.584 E45.10376
G1 X28.442 Y194.989 E45.12935
G1 X28.019 Y194.347 E45.15492
G1 X27.664 Y193.664 E45.18053
G1 X27.383 Y192.949 E45.20608
G1 X27.177 Y192.207 E45.23169
G1 X27.049 Y191.449 E45.25726
G1 X27 Y190.6 E45.28554
G1 X27 Y9.4 E51.31228
G1 X27.04 Y8.632 E51.33786
G1 X27.159 Y7.872 E51.36344
G1 X27.357 Y7.129 E51.38902
G0 F3600 X27.757 Y7.193
G1 F1500 X28.03 Y6.497 E51.41388
G1 X28.377 Y5.834 E51.43877
G1 X28.792 Y5.211 E51.46367
G1 X29.271 Y4.637 E51.48854
G1 X29.808 Y4.116 E51.51342
G1 X30.398 Y3.657 E51.53828
G1 X31.034 Y3.262 E51.56319
G1 X31.708 Y2.938 E51.58806
G1 X32.413 Y2.688 E51.61294
G1 X33.141 Y2.514 E51.63783
G1 X33.883 Y2.419 E51.66271
G1 X34.4 Y2.4 E51.67992
G1 X215.6 Y2.4 E57.70666
G1 X216.347 Y2.44 E57.73154
G1 X217.085 Y2.559 E57.7564
G1 X217.807 Y2.757 E57.7813
G1 X218.503 Y3.03 E57.80617
G1 X219.166 Y3.377 E57.83106
G1 X219.789 Y3.792 E57.85595
G1 X220.363 Y4.271 E57.88082
G1 X220.884 Y4.808 E57.90571
G1 X221.343 Y5.398 E57.93057
G1 X221.738 Y6.034 E57.95547
G1 X222.062 Y6.708 E57.98034
G1 X222.312 Y7.413 E58.00522
G1 X222.486 Y8.141 E58.03012
G1 X222.581 Y8.883 E58.055
G1 X222.6 Y9.4 E58.0722
G1 X222.6 Y190.6 E64.09894
G1 X222.56 Y191.347 E64.12382
G1 X222.441 Y192.085 E64.14868
G1 X222.243 Y192.807 E64.17359
G1 X221.97 Y193.503 E64.19845
G1 X221.623 Y194.166 E64.22334
G1 X221.208 Y194.789 E64.24824
G1 X220.729 Y195.363 E64.2731
G1 X220.192 Y195.884 E64.29799
G1 X219.602 Y196.343 E64.32285
G1 X218.966 Y196.738 E64.34775
G1 X218.292 Y197.062 E64.37263
G1 X217.587 Y197.312 E64.3975
G1 X216.859 Y197.486 E64.4224
G1 X216.117 Y197.581 E64.44728
G1 X215.6 Y197.6 E64.46449
G1 X34.4 Y197.6 E70.49122
G1 X33.653 Y197.56 E70.5161
G1 X32.915 Y197.441 E70.54097
G1 X32.193 Y197.243 E70.56587
G1 X31.497 Y196.97 E70.59073
G1 X30.834 Y196.623 E70.61562
G1 X30.211 Y196.208 E70.64052
G1 X29.637 Y195.729 E70.66539
G1 X29.116 Y195.192 E70.69027
G1 X28.657 Y194.602 E70.71513
G1 X28.262 Y193.966 E70.74004
G1 X27.938 Y193.292 E70.76491
G1 X27.688 Y192.587 E70.78979
G1 X27.514 Y191.859 E70.81468
G1 X27.419 Y191.117 E70.83956
G1 X27.4 Y190.6 E70.85677
G1 X27.4 Y9.4 E76.88351
G1 X27.44 Y8.653 E76.90839
G1 X27.559 Y7.915 E76.93325
G1 X27.757 Y7.193 E76.95815
G0 F3600 X28.157 Y7.259
G1 F1500 X28.43 Y6.586 E76.98231
G1 X28.775 Y5.947 E77.00646
G1 X29.189 Y5.35 E77.03062
G1 X29.665 Y4.802 E77.05477
G1 X30.199 Y4.309 E77.07894
G1 X30.784 Y3.879 E77.10309
G1 X31.413 Y3.515 E77.12726
G1 X32.078 Y3.222 E77.15143
G1 X32.771 Y3.004 E77.17559
G1 X33.483 Y2.864 E77.19972
G1 X34.4 Y2.8 E77.2303
G1 X215.6 Y2.8 E83.25704
G1 X216.325 Y2.84 E83.28119
G1 X217.042 Y2.959 E83.30536
G1 X217.741 Y3.157 E83.32952
G1 X218.414 Y3.43 E83.35368
G1 X219.053 Y3.775 E83.37783
G1 X219.65 Y4.189 E83.40199
G1 X220.198 Y4.665 E83.42614
G1 X220.691 Y5.199 E83.45031
G1 X221.121 Y5.784 E83.47446
G1 X221.485 Y6.413 E83.49863
G1 X221.778 Y7.078 E83.5228
G1 X221.996 Y7.771 E83.54696
G1 X222.136 Y8.483 E83.5711
G1 X222.2 Y9.4 E83.60167
G1 X222.2 Y190.6 E89.62841
G1 X222.16 Y191.325 E89.65256
G1 X222.041 Y192.042 E89.67673
G1 X221.843 Y192.741 E89.70089
G1 X221.57 Y193.414 E89.72505
G1 X221.225 Y194.053 E89.7492
G1 X220.811 Y194.65 E89.77337
G1 X220.335 Y195.198 E89.79751
G1 X219.801 Y195.691 E89.82168
G1 X219.216 Y196.121 E89.84583
G1 X218.587 Y196.485 E89.87
G1 X217.922 Y196.778 E89.89417
G1 X217.229 Y196.996 E89.91833
G1 X216.517 Y197.136 E89.94247
G1 X215.6 Y197.2 E89.97304
G1 X34.4 Y197.2 E95.99978
G1 X33.675 Y197.16 E96.02393
G1 X32.958 Y197.041 E96.0481
G1 X32.259 Y196.843 E96.07227
G1 X31.586 Y196.57 E96.09642
G1 X30.947 Y196.225 E96.12057
G1 X30.35 Y195.811 E96.14474
G1 X29.802 Y195.335 E96.16888
G1 X29.309 Y194.801 E96.19305
G1 X28.879 Y194.216 E96.2172
G1 X28.515 Y193.587 E96.24137
G1 X28.222 Y192.922 E96.26554
G1 X28.004 Y192.229 E96.2897
G1 X27.864 Y191.517 E96.31384
G1 X27.8 Y190.6 E96.34441
G1 X27.8 Y9.4 E102.37115
G1 X27.84 Y8.675 E102.3953
G1 X27.959 Y7.958 E102.41947
G1 X28.157 Y7.259 E102.44364
G0 F3600 X28.557 Y7.328
G1 F1500 X28.829 Y6.679 E102.46704
G1 X29.174 Y6.065 E102.49047
G1 X29.585 Y5.494 E102.51387
G1 X30.059 Y4.973 E102.53729
G1 X30.589 Y4.509 E102.56072
G1 X31.168 Y4.109 E102.58413
G1 X31.789 Y3.777 E102.60755
G1 X32.443 Y3.517 E102.63096
G1 X33.123 Y3.333 E102.65439
G1 X33.819 Y3.227 E102.6778
G1 X34.4 Y3.2 E102.69715
G1 X215.6 Y3.2 E108.72389
G1 X216.303 Y3.24 E108.7473
G1 X216.997 Y3.359 E108.77072
G1 X217.672 Y3.557 E108.79412
G1 X218.321 Y3.829 E108.81753
G1 X218.935 Y4.174 E108.84095
G1 X219.506 Y4.585 E108.86435
G1 X220.027 Y5.059 E108.88778
G1 X220.491 Y5.589 E108.91121
G1 X220.891 Y6.168 E108.93461
G1 X221.223 Y6.789 E108.95803
G1 X221.483 Y7.443 E108.98144
G1 X221.667 Y8.123 E109.00487
G1 X221.773 Y8.819 E109.02829
G1 X221.8 Y9.4 E109.04763
G1 X221.8 Y190.6 E115.07437
G1 X221.76 Y191.303 E115.09779
G1 X221.641 Y191.997 E115.12121
G1 X221.443 Y192.672 E115.1446
G1 X221.171 Y193.321 E115.16801
G1 X220.826 Y193.935 E115.19143
G1 X220.415 Y194.506 E115.21483
G1 X219.941 Y195.027 E115.23826
G1 X219.411 Y195.491 E115.26169
G1 X218.832 Y195.891 E115.2851
G1 X218.211 Y196.223 E115.30852
G1 X217.557 Y196.483 E115.33192
G1 X216.877 Y196.667 E115.35536
G1 X216.181 Y196.773 E115.37877
G1 X215.6 Y196.8 E115.39812
G1 X34.4 Y196.8 E121.42485
G1 X33.697 Y196.76 E121.44827
G1 X33.003 Y196.641 E121.47169
G1 X32.328 Y196.443 E121.49509
G1 X31.679 Y196.171 E121.51849
G1 X31.065 Y195.826 E121.54192
G1 X30.494 Y195.415 E121.56532
G1 X29.973 Y194.941 E121.58874
G1 X29.509 Y194.411 E121.61217
G1 X29.109 Y193.832 E121.63558
G1 X28.777 Y193.211 E121.659
G1 X28.517 Y192.557 E121.68241
G1 X28.333 Y191.877 E121.70584
G1 X28.227 Y191.181 E121.72925
G1 X28.2 Y190.6 E121.7486
G1 X28.2 Y9.4 E127.77534
G1 X28.24 Y8.697 E127.79876
G1 X28.359 Y8.003 E127.82218
G1 X28.557 Y7.328 E127.84557
G0 F3600 X28.956 Y7.398
G1 F1500 X29.228 Y6.774 E127.86821
G1 X29.572 Y6.186 E127.89087
G1 X29.982 Y5.642 E127.91353
G1 X30.453 Y5.151 E127.93616
G1 X30.978 Y4.717 E127.95881
G1 X31.55 Y4.348 E127.98145
G1 X32.162 Y4.049 E128.00411
G1 X32.804 Y3.824 E128.02673
G1 X33.469 Y3.675 E128.0494
G1 X34.4 Y3.6 E128.08047
G1 X215.6 Y3.6 E134.1072
G1 X216.28 Y3.64 E134.12986
G1 X216.95 Y3.759 E134.15249
G1 X217.602 Y3.956 E134.17514
G1 X218.226 Y4.228 E134.19779
G1 X218.814 Y4.572 E134.22044
G1 X219.358 Y4.982 E134.2431
G1 X219.849 Y5.453 E134.26573
G1 X220.283 Y5.978 E134.28839
G1 X220.652 Y6.55 E134.31103
G1 X220.951 Y7.162 E134.33368
G1 X221.176 Y7.804 E134.35631
G1 X221.325 Y8.469 E134.37897
G1 X221.4 Y9.4 E134.41004
G1 X221.4 Y190.6 E140.43677
G1 X221.36 Y191.28 E140.45943
G1 X221.241 Y191.95 E140.48206
G1 X221.044 Y192.602 E140.50472
G1 X220.772 Y193.226 E140.52736
G1 X220.428 Y193.814 E140.55002
G1 X220.018 Y194.358 E140.57267
G1 X219.547 Y194.849 E140.5953
G1 X219.022 Y195.283 E140.61796
G1 X218.45 Y195.652 E140.6406
G1 X217.838 Y195.951 E140.66325
G1 X217.196 Y196.176 E140.68588
G1 X216.531 Y196.325 E140.70855
G1 X215.6 Y196.4 E140.73961
G1 X34.4 Y196.4 E146.76635
G1 X33.72 Y196.36 E146.789
G1 X33.05 Y196.241 E146.81164
G1 X32.398 Y196.044 E146.83429
G1 X31.774 Y195.772 E146.85693
G1 X31.186 Y195.428 E146.87959
G1 X30.642 Y195.018 E146.90225
G1 X30.151 Y194.547 E146.92487
G1 X29.717 Y194.022 E146.94753
G1 X29.348 Y193.45 E146.97017
G1 X29.049 Y192.838 E146.99282
G1 X28.824 Y192.196 E147.01545
G1 X28.675 Y191.531 E147.03812
G1 X28.6 Y190.6 E147.06918
G1 X28.6 Y9.4 E153.09592
G1 X28.64 Y8.72 E153.11858
G1 X28.759 Y8.05 E153.14121
G1 X28.956 Y7.398 E153.16386
G0 F3600 X29.159 Y8.098
G1 F1500 X29.356 Y7.471 E153.18572
G1 X29.628 Y6.873 E153.20757
G1 X29.97 Y6.312 E153.22943
G1 X30.378 Y5.797 E153.25128
G1 X30.845 Y5.335 E153.27313
G1 X31.365 Y4.934 E153.29497
G1 X31.929 Y4.598 E153.3168
G1 X32.531 Y4.334 E153.33867
G1 X33.16 Y4.144 E153.36052
G1 X33.807 Y4.033 E153.38235
G1 X34.4 Y4 E153.40211
G1 X215.6 Y4 E159.42884
G1 X216.256 Y4.04 E159.4507
G1 X216.902 Y4.159 E159.47255
G1 X217.529 Y4.356 E159.49441
G1 X218.127 Y4.628 E159.51626
G1 X218.688 Y4.97 E159.53811
G1 X219.203 Y5.378 E159.55997
G1 X219.665 Y5.845 E159.58182
G1 X220.066 Y6.365 E159.60366
G1 X220.402 Y6.929 E159.62549
G1 X220.666 Y7.531 E159.64735
G1 X220.856 Y8.16 E159.66921
G1 X220.967 Y8.807 E159.69104
G1 X221 Y9.4 E159.7108
G1 X221 Y190.6 E165.73753
G1 X220.96 Y191.256 E165.75939
G1 X220.841 Y191.902 E165.78124
G1 X220.644 Y192.529 E165.8031
G1 X220.372 Y193.127 E165.82495
G1 X220.03 Y193.688 E165.8468
G1 X219.622 Y194.203 E165.86865
G1 X219.155 Y194.665 E165.8905
G1 X218.635 Y195.066 E165.91234
G1 X218.071 Y195.402 E165.93418
G1 X217.469 Y195.666 E165.95604
G1 X216.84 Y195.856 E165.9779
G1 X216.193 Y195.967 E165.99973
G1 X215.6 Y196 E166.01948
G1 X34.4 Y196 E172.04622
G1 X33.744 Y195.96 E172.06808
G1 X33.098 Y195.841 E172.08993
G1 X32.471 Y195.644 E172.11179
G1 X31.873 Y195.372 E172.13364
G1 X31.312 Y195.03 E172.15549
G1 X30.797 Y194.622 E172.17734
G1 X30.335 Y194.155 E172.19919
G1 X29.934 Y193.635 E172.22103
G1 X29.598 Y193.071 E172.24287
G1 X29.334 Y192.469 E172.26473
G1 X29.144 Y191.84 E172.28659
G1 X29.033 Y191.193 E172.30842
G1 X29 Y190.6 E172.32817
G1 X29 Y9.4 E178.35491
G1 X29.04 Y8.744 E178.37677
G1 X29.159 Y8.098 E178.39862
G0 F3600 X29.559 Y8.148
G1 F1500 X29.756 Y7.548 E178.41962
G1 X30.027 Y6.976 E178.44067
G1 X30.367 Y6.444 E178.46167
G1 X30.773 Y5.959 E178.48271
G1 X31.236 Y5.529 E178.50373
G1 X31.75 Y5.16 E178.52477
G1 X32.306 Y4.86 E178.54578
G1 X32.895 Y4.632 E178.56679
G1 X33.509 Y4.48 E178.58783
G1 X34.4 Y4.4 E178.61758
G1 X215.6 Y4.4 E184.64432
G1 X216.231 Y4.44 E184.66535
G1 X216.852 Y4.559 E184.68638
G1 X217.452 Y4.756 E184.70738
G1 X218.024 Y5.027 E184.72843
G1 X218.556 Y5.367 E184.74943
G1 X219.041 Y5.773 E184.77047
G1 X219.471 Y6.236 E184.79149
G1 X219.84 Y6.75 E184.81253
G1 X220.14 Y7.306 E184.83354
G1 X220.368 Y7.895 E184.85455
G1 X220.52 Y8.509 E184.87559
G1 X220.6 Y9.4 E184.90534
G1 X220.6 Y190.6 E190.93208
G1 X220.56 Y191.231 E190.95311
G1 X220.441 Y191.852 E190.97414
G1 X220.244 Y192.452 E190.99514
G1 X219.973 Y193.024 E191.0162
G1 X219.633 Y193.556 E191.0372
G1 X219.227 Y194.041 E191.05823
G1 X218.764 Y194.471 E191.07925
G1 X218.25 Y194.84 E191.10029
G1 X217.694 Y195.14 E191.12131
G1 X217.105 Y195.368 E191.14231
G1 X216.491 Y195.52 E191.16335
G1 X215.6 Y195.6 E191.19311
G1 X34.4 Y195.6 E197.21984
G1 X33.769 Y195.56 E197.24087
G1 X33.148 Y195.441 E197.2619
G1 X32.548 Y195.244 E197.28291
G1 X31.976 Y194.973 E197.30396
G1 X31.444 Y194.633 E197.32496
G1 X30.959 Y194.227 E197.34599
G1 X30.529 Y193.764 E197.36701
G1 X30.16 Y193.25 E197.38806
G1 X29.86 Y192.694 E197.40907
G1 X29.632 Y192.105 E197.43008
G1 X29.48 Y191.491 E197.45111
G1 X29.4 Y190.6 E197.48087
G1 X29.4 Y9.4 E203.5076
G1 X29.44 Y8.769 E203.52863
G1 X29.559 Y8.148 E203.54966
G0 F3600 X29.959 Y8.201
G1 F1500 X30.155 Y7.627 E203.56984
G1 X30.426 Y7.084 E203.59002
G1 X30.765 Y6.581 E203.6102
G1 X31.167 Y6.128 E203.63034
G1 X31.625 Y5.731 E203.6505
G1 X32.132 Y5.398 E203.67067
G1 X32.678 Y5.134 E203.69085
G1 X33.254 Y4.945 E203.71101
G1 X33.85 Y4.833 E203.73118
G1 X34.4 Y4.8 E203.7495
G1 X215.6 Y4.8 E209.77624
G1 X216.205 Y4.84 E209.79641
G1 X216.799 Y4.959 E209.81656
G1 X217.373 Y5.155 E209.83673
G1 X217.916 Y5.426 E209.85691
G1 X218.419 Y5.765 E209.87709
G1 X218.872 Y6.167 E209.89723
G1 X219.269 Y6.625 E209.91739
G1 X219.602 Y7.132 E209.93757
G1 X219.866 Y7.678 E209.95774
G1 X220.055 Y8.254 E209.9779
G1 X220.167 Y8.85 E209.99807
G1 X220.2 Y9.4 E210.0164
