;FLAVOR:Marlin
;TIME:5025
;Filament used: 4.81226m
;Layer height: 0.2
;MINX:104.569
;MINY:60.189
;MINZ:0.2
;MAXX:175.1
;MAXY:132.1
;MAXZ:13.4
;Generated with Cura_SteamEngine 4.3.0
M140 S60
M105
M190 S60
M104 S210
M105
M109 S210
M82 ;absolute extrusion mode
; -- START GCODE -- 
M4002 P1 ;set heat program 1 
M1203 A88 D66 F1200 ;set higher accel and decel 
G28 X0 Y0 ;home XY 
G28 Z0 ;home Z
G91 ;set relative movements 
G0 F100 ;speed 100mm/sec 
G0 E20 ;extrude 20mm of filament
G90 ;absolute movements 
; -- end of START GCODE --
G92 E0
G92 E0
G1 F1800 E-0.6
;LAYER_COUNT:67
;LAYER:0
M107
G0 F3600 X105.98 Y64.955 Z0.2
;TYPE:SKIRT
G1 F1800 E0
G1 F1500 X106.286 Y64.477 E0.01888
G1 X106.745 Y63.834 E0.04515
G1 X107.266 Y63.241 E0.07141
G1 X107.729 Y62.803 E0.09261
G1 X108.158 Y62.429 E0.11154
G1 X108.779 Y61.94 E0.13782
G1 X109.446 Y61.518 E0.16408
G1 X110.046 Y61.212 E0.18648
G1 X110.561 Y60.977 E0.20531
G1 X111.295 Y60.686 E0.23157
G1 X112.055 Y60.471 E0.25784
G1 X112.673 Y60.355 E0.27875
G1 X113.242 Y60.272 E0.29788
G1 X114.367 Y60.19 E0.33539
G1 X127.83 Y60.189 E0.78317
G1 X127.968 Y60.189 E0.78776
G1 X128.757 Y60.229 E0.81404
G1 X129.538 Y60.348 E0.84032
G1 X130.302 Y60.546 E0.86657
G1 X131.043 Y60.82 E0.89284
G1 X131.752 Y61.168 E0.91911
G1 X132.422 Y61.585 E0.94536
G1 X133.047 Y62.068 E0.97163
G1 X133.62 Y62.612 E0.99791
G1 X134.134 Y63.211 E1.02416
G1 X134.586 Y63.859 E1.05044
G1 X134.969 Y64.549 E1.07669
G1 X135.281 Y65.274 E1.10294
G1 X135.518 Y66.028 E1.12923
G1 X135.678 Y66.801 E1.15548
G1 X135.759 Y67.587 E1.18176
G1 X135.769 Y67.989 E1.19514
G1 X135.769 Y69.189 E1.23505
G1 X136.969 Y69.189 E1.27496
G1 X137.758 Y69.229 E1.30124
G1 X138.538 Y69.348 E1.32748
G1 X139.303 Y69.546 E1.35376
G1 X139.404 Y69.583 E1.35734
G1 X139.548 Y69.538 E1.36236
G1 X140.321 Y69.378 E1.38861
G1 X141.107 Y69.297 E1.4149
G1 X141.509 Y69.287 E1.42827
G1 X142.709 Y69.287 E1.46818
G1 X142.709 Y68.325 E1.50018
G1 X142.716 Y67.998 E1.51106
G1 X142.726 Y67.76 E1.51898
G1 X142.799 Y66.973 E1.54527
G1 X142.951 Y66.198 E1.57154
G1 X143.181 Y65.443 E1.59779
G1 X143.486 Y64.714 E1.62407
G1 X143.863 Y64.021 E1.65031
G1 X144.308 Y63.368 E1.67659
G1 X144.817 Y62.765 E1.70284
G1 X145.384 Y62.215 E1.72911
G1 X146.004 Y61.726 E1.75537
G1 X146.671 Y61.302 E1.78166
G1 X147.376 Y60.948 E1.8079
G1 X148.114 Y60.667 E1.83417
G1 X148.877 Y60.462 E1.86044
G1 X149.656 Y60.335 E1.88669
G1 X150.519 Y60.287 E1.91544
G1 X163.919 Y60.287 E2.36113
G1 X164.278 Y60.295 E2.37307
G1 X164.756 Y60.317 E2.38899
G1 X165.542 Y60.393 E2.41525
G1 X166.587 Y60.623 E2.45084
G1 X167.127 Y60.781 E2.46955
G1 X167.873 Y61.041 E2.49583
G1 X168.589 Y61.375 E2.52211
G1 X169.152 Y61.704 E2.5438
G1 X169.63 Y62.011 E2.56269
G1 X170.272 Y62.471 E2.58896
G1 X170.864 Y62.993 E2.61521
G1 X171.288 Y63.442 E2.63575
G1 X171.662 Y63.87 E2.65465
G1 X172.151 Y64.49 E2.68092
G1 X172.575 Y65.156 E2.70718
G1 X172.88 Y65.753 E2.72947
G1 X173.116 Y66.268 E2.74832
G1 X173.408 Y67.001 E2.77456
G1 X173.625 Y67.761 E2.80085
G1 X173.742 Y68.385 E2.82196
G1 X173.825 Y68.951 E2.84099
G1 X173.908 Y70.083 E2.87874
G1 X173.909 Y87.556 E3.4599
G1 X173.904 Y87.834 E3.46914
G1 X173.883 Y88.423 E3.48875
G1 X173.756 Y89.574 E3.52726
G1 X173.587 Y90.481 E3.55795
G1 X173.403 Y91.249 E3.58421
G1 X173.194 Y91.866 E3.60588
G1 X172.861 Y92.727 E3.63658
G1 X172.539 Y93.448 E3.66285
G1 X172.222 Y94.012 E3.68437
G1 X171.927 Y94.49 E3.70305
G1 X172.048 Y94.597 E3.70842
G1 X172.493 Y95.068 E3.72997
G1 X172.866 Y95.497 E3.74888
G1 X173.354 Y96.119 E3.77518
G1 X173.776 Y96.786 E3.80143
G1 X174.071 Y97.366 E3.82307
G1 X174.307 Y97.881 E3.84191
G1 X174.599 Y98.614 E3.86816
G1 X174.816 Y99.374 E3.89444
G1 X174.933 Y99.998 E3.91556
G1 X175.016 Y100.564 E3.93459
G1 X175.099 Y101.695 E3.9723
G1 X175.1 Y115.186 E4.42102
G1 X175.1 Y115.299 E4.42477
G1 X175.06 Y116.088 E4.45105
G1 X174.941 Y116.869 E4.47733
G1 X174.743 Y117.633 E4.50358
G1 X174.469 Y118.374 E4.52985
G1 X174.121 Y119.083 E4.55612
G1 X173.704 Y119.753 E4.58237
G1 X173.221 Y120.378 E4.60864
G1 X172.677 Y120.951 E4.63492
G1 X172.078 Y121.465 E4.66117
G1 X171.43 Y121.917 E4.68745
G1 X170.74 Y122.3 E4.7137
G1 X170.015 Y122.612 E4.73995
G1 X169.261 Y122.849 E4.76624
G1 X168.488 Y123.009 E4.79249
G1 X167.702 Y123.09 E4.81877
G1 X167.3 Y123.1 E4.83215
G1 X166.1 Y123.1 E4.87206
G1 X166.1 Y124.3 E4.91197
G1 X166.06 Y125.089 E4.93825
G1 X165.941 Y125.869 E4.96449
G1 X165.743 Y126.634 E4.99077
G1 X165.469 Y127.374 E5.01702
G1 X165.121 Y128.083 E5.04329
G1 X164.703 Y128.754 E5.06958
G1 X164.22 Y129.378 E5.09583
G1 X163.677 Y129.951 E5.12208
G1 X163.078 Y130.466 E5.14836
G1 X162.43 Y130.917 E5.17462
G1 X161.739 Y131.301 E5.20091
G1 X161.014 Y131.613 E5.22716
G1 X160.261 Y131.85 E5.25342
G1 X159.487 Y132.009 E5.2797
G1 X158.702 Y132.09 E5.30595
G1 X158.3 Y132.1 E5.31932
G1 X144.922 Y132.1 E5.76428
G1 X144.629 Y132.094 E5.77402
G1 X144.124 Y132.075 E5.79083
G1 X143.337 Y132.006 E5.81711
G1 X142.211 Y131.763 E5.85542
G1 X141.665 Y131.602 E5.87435
G1 X140.92 Y131.34 E5.90062
G1 X140.205 Y131.005 E5.92688
G1 X139.656 Y130.683 E5.94805
G1 X139.178 Y130.376 E5.96695
G1 X139.167 Y130.368 E5.9674
G1 X139.114 Y130.389 E5.96929
G1 X138.355 Y130.605 E5.99554
G1 X137.732 Y130.722 E6.01662
G1 X137.164 Y130.805 E6.03572
G1 X136.037 Y130.887 E6.0733
G1 X122.605 Y130.888 E6.52005
G1 X122.436 Y130.888 E6.52567
G1 X121.647 Y130.848 E6.55195
G1 X120.866 Y130.729 E6.57822
G1 X120.102 Y130.531 E6.60447
G1 X119.361 Y130.257 E6.63075
G1 X118.652 Y129.909 E6.65702
G1 X117.982 Y129.492 E6.68327
G1 X117.357 Y129.009 E6.70954
G1 X116.784 Y128.465 E6.73582
G1 X116.27 Y127.866 E6.76207
G1 X115.818 Y127.218 E6.78835
G1 X115.435 Y126.528 E6.81459
G1 X115.123 Y125.803 E6.84085
G1 X114.886 Y125.049 E6.86713
G1 X114.726 Y124.276 E6.89339
G1 X114.645 Y123.49 E6.91967
G1 X114.635 Y123.088 E6.93305
G1 X114.635 Y121.888 E6.97296
G1 X113.435 Y121.888 E7.01287
G1 X112.646 Y121.848 E7.03915
G1 X111.866 Y121.729 E7.06539
G1 X111.101 Y121.531 E7.09167
G1 X110.361 Y121.257 E7.11792
G1 X109.652 Y120.909 E7.14419
G1 X108.981 Y120.491 E7.17048
G1 X108.357 Y120.008 E7.19672
G1 X107.784 Y119.465 E7.22298
G1 X107.269 Y118.866 E7.24925
G1 X106.818 Y118.218 E7.27551
G1 X106.434 Y117.527 E7.30181
G1 X106.122 Y116.802 E7.32806
G1 X105.885 Y116.049 E7.35431
G1 X105.726 Y115.275 E7.38059
G1 X105.645 Y114.49 E7.40684
G1 X105.635 Y114.088 E7.42022
G1 X105.635 Y100.649 E7.8672
G1 X105.644 Y100.285 E7.87931
G1 X105.665 Y99.836 E7.89426
G1 X105.741 Y99.05 E7.92053
G1 X105.97 Y98.01 E7.95594
G1 X106.128 Y97.47 E7.97466
G1 X106.388 Y96.724 E8.00093
G1 X106.722 Y96.008 E8.02721
G1 X107.051 Y95.445 E8.0489
G1 X107.16 Y95.275 E8.05562
G1 X106.905 Y94.939 E8.06965
G1 X106.461 Y94.286 E8.09591
G1 X106.139 Y93.703 E8.11806
G1 X105.726 Y92.873 E8.1489
G1 X105.41 Y92.149 E8.17517
G1 X105.21 Y91.544 E8.19636
G1 X104.957 Y90.66 E8.22695
G1 X104.779 Y89.891 E8.2532
G1 X104.69 Y89.241 E8.27502
G1 X104.604 Y88.322 E8.30572
G1 X104.57 Y87.595 E8.32993
G1 X104.569 Y70.12 E8.91115
G1 X104.579 Y69.73 E8.92412
G1 X104.6 Y69.31 E8.93811
G1 X104.679 Y68.525 E8.96435
G1 X104.908 Y67.497 E8.99938
G1 X105.067 Y66.957 E9.0181
G1 X105.328 Y66.212 E9.04436
G1 X105.663 Y65.497 E9.07062
G1 X105.98 Y64.955 E9.0915
G0 F3600 X106.317 Y65.17
G1 F1500 X106.623 Y64.692 E9.11038
G1 X107.07 Y64.067 E9.13594
G1 X107.581 Y63.491 E9.16155
G1 X107.992 Y63.104 E9.18032
G1 X108.421 Y62.73 E9.19925
G1 X109.026 Y62.255 E9.22484
G1 X109.678 Y61.846 E9.25044
G1 X110.212 Y61.576 E9.27034
G1 X110.727 Y61.341 E9.28917
G1 X111.442 Y61.058 E9.31474
G1 X112.183 Y60.852 E9.34032
G1 X112.731 Y60.75 E9.35886
G1 X113.3 Y60.667 E9.37799
G1 X114.367 Y60.59 E9.41357
G1 X127.83 Y60.589 E9.86135
G1 X127.968 Y60.589 E9.86594
G1 X128.737 Y60.629 E9.89155
G1 X129.496 Y60.748 E9.9171
G1 X130.24 Y60.946 E9.94271
G1 X130.959 Y61.22 E9.9683
G1 X131.645 Y61.567 E9.99387
G1 X132.292 Y61.983 E10.01946
G1 X132.892 Y62.464 E10.04503
G1 X133.439 Y63.005 E10.07062
G1 X133.927 Y63.6 E10.09622
G1 X134.35 Y64.242 E10.12179
G1 X134.705 Y64.924 E10.14736
G1 X134.986 Y65.64 E10.17294
G1 X135.192 Y66.381 E10.19852
G1 X135.32 Y67.139 E10.22409
G1 X135.369 Y67.989 E10.25241
G1 X135.369 Y69.589 E10.30563
G1 X136.969 Y69.589 E10.35884
G1 X137.737 Y69.629 E10.38442
G1 X138.497 Y69.748 E10.41001
G1 X139.24 Y69.946 E10.43558
G1 X139.394 Y70.005 E10.44107
G1 X139.901 Y69.864 E10.45857
G1 X140.659 Y69.736 E10.48414
G1 X141.509 Y69.687 E10.51245
G1 X143.109 Y69.687 E10.56567
G1 X143.109 Y68.325 E10.61097
G1 X143.116 Y68.014 E10.62132
G1 X143.126 Y67.776 E10.62924
G1 X143.198 Y67.011 E10.6548
G1 X143.349 Y66.256 E10.68041
G1 X143.578 Y65.522 E10.70598
G1 X143.881 Y64.815 E10.73156
G1 X144.257 Y64.144 E10.75714
G1 X144.7 Y63.515 E10.78273
G1 X145.206 Y62.936 E10.80831
G1 X145.769 Y62.412 E10.83389
G1 X146.384 Y61.95 E10.85947
G1 X147.043 Y61.554 E10.88504
G1 X147.74 Y61.229 E10.91062
G1 X148.467 Y60.977 E10.93621
G1 X149.216 Y60.803 E10.96179
G1 X149.979 Y60.707 E10.98737
G1 X150.519 Y60.687 E11.00534
G1 X163.919 Y60.687 E11.45103
G1 X164.259 Y60.695 E11.46234
G1 X164.737 Y60.717 E11.47825
G1 X165.503 Y60.792 E11.50385
G1 X166.475 Y61.007 E11.53696
G1 X167.015 Y61.165 E11.55568
G1 X167.741 Y61.419 E11.58126
G1 X168.437 Y61.747 E11.60685
G1 X168.936 Y62.041 E11.62611
G1 X169.414 Y62.348 E11.64501
G1 X170.039 Y62.796 E11.67058
G1 X170.613 Y63.307 E11.69614
G1 X170.987 Y63.705 E11.71431
G1 X171.361 Y64.133 E11.73321
G1 X171.837 Y64.737 E11.75879
G1 X172.247 Y65.388 E11.78438
G1 X172.516 Y65.919 E11.80418
G1 X172.752 Y66.434 E11.82302
G1 X173.036 Y67.149 E11.84861
G1 X173.244 Y67.89 E11.87421
G1 X173.347 Y68.443 E11.89292
G1 X173.43 Y69.009 E11.91194
G1 X173.508 Y70.083 E11.94776
G1 X173.509 Y87.556 E12.52891
G1 X173.504 Y87.82 E12.53769
G1 X173.483 Y88.409 E12.5573
G1 X173.363 Y89.501 E12.59384
G1 X173.194 Y90.408 E12.62452
G1 X173.014 Y91.155 E12.65008
G1 X172.821 Y91.721 E12.66997
G1 X172.488 Y92.582 E12.70067
G1 X172.173 Y93.284 E12.72626
G1 X171.882 Y93.802 E12.74602
G1 X171.409 Y94.567 E12.77594
G1 X171.798 Y94.912 E12.79323
G1 X172.191 Y95.331 E12.81234
G1 X172.564 Y95.76 E12.83125
G1 X173.038 Y96.365 E12.85681
G1 X173.447 Y97.017 E12.88241
G1 X173.707 Y97.532 E12.9016
G1 X173.943 Y98.047 E12.92044
G1 X174.227 Y98.762 E12.94603
G1 X174.435 Y99.503 E12.97163
G1 X174.538 Y100.056 E12.99034
G1 X174.621 Y100.622 E13.00936
G1 X174.699 Y101.695 E13.04514
G1 X174.7 Y115.186 E13.49386
G1 X174.7 Y115.299 E13.49761
G1 X174.66 Y116.068 E13.52323
G1 X174.541 Y116.827 E13.54878
G1 X174.343 Y117.571 E13.57439
G1 X174.069 Y118.29 E13.59998
G1 X173.722 Y118.976 E13.62555
G1 X173.306 Y119.623 E13.65113
G1 X172.825 Y120.223 E13.67671
G1 X172.284 Y120.77 E13.7023
G1 X171.689 Y121.258 E13.72789
G1 X171.047 Y121.681 E13.75346
G1 X170.365 Y122.036 E13.77903
G1 X169.649 Y122.317 E13.80462
G1 X168.908 Y122.523 E13.8302
G1 X168.15 Y122.651 E13.85577
G1 X167.3 Y122.7 E13.88408
G1 X165.7 Y122.7 E13.9373
G1 X165.7 Y124.3 E13.99052
G1 X165.66 Y125.068 E14.01609
G1 X165.541 Y125.828 E14.04168
G1 X165.343 Y126.571 E14.06725
G1 X165.069 Y127.29 E14.09285
G1 X164.722 Y127.976 E14.11842
G1 X164.306 Y128.623 E14.144
G1 X163.825 Y129.223 E14.16958
G1 X163.284 Y129.77 E14.19516
G1 X162.689 Y130.258 E14.22076
G1 X162.047 Y130.681 E14.24633
G1 X161.364 Y131.036 E14.27193
G1 X160.649 Y131.317 E14.29748
G1 X159.907 Y131.523 E14.3231
G1 X159.149 Y131.651 E14.34866
G1 X158.3 Y131.7 E14.37695
G1 X144.922 Y131.7 E14.8219
G1 X144.644 Y131.695 E14.83115
G1 X144.139 Y131.676 E14.84796
G1 X143.373 Y131.607 E14.87354
G1 X142.324 Y131.379 E14.90924
G1 X141.778 Y131.218 E14.92818
G1 X141.053 Y130.962 E14.95375
G1 X140.358 Y130.633 E14.97933
G1 X139.872 Y130.346 E14.9981
G1 X139.394 Y130.039 E15.01699
G1 X139.222 Y129.916 E15.02403
G1 X138.967 Y130.017 E15.03315
G1 X138.226 Y130.224 E15.05874
G1 X137.674 Y130.326 E15.07741
G1 X137.106 Y130.409 E15.0965
G1 X136.037 Y130.487 E15.13215
G1 X122.605 Y130.488 E15.5789
G1 X122.436 Y130.488 E15.58452
G1 X121.667 Y130.448 E15.61013
G1 X120.908 Y130.329 E15.63569
G1 X120.164 Y130.131 E15.66129
G1 X119.445 Y129.857 E15.68688
G1 X118.759 Y129.51 E15.71245
G1 X118.112 Y129.094 E15.73804
G1 X117.512 Y128.613 E15.76361
G1 X116.965 Y128.072 E15.7892
G1 X116.477 Y127.477 E15.8148
G1 X116.054 Y126.835 E15.84037
G1 X115.699 Y126.153 E15.86594
G1 X115.418 Y125.437 E15.89152
G1 X115.212 Y124.696 E15.9171
G1 X115.084 Y123.938 E15.94267
G1 X115.035 Y123.088 E15.97099
G1 X115.035 Y121.488 E16.02421
G1 X113.435 Y121.488 E16.07742
G1 X112.667 Y121.448 E16.103
G1 X111.907 Y121.329 E16.12859
G1 X111.164 Y121.131 E16.15416
G1 X110.445 Y120.857 E16.17975
G1 X109.759 Y120.51 E16.20532
G1 X109.112 Y120.094 E16.23091
G1 X108.512 Y119.613 E16.25648
G1 X107.965 Y119.072 E16.28207
G1 X107.477 Y118.477 E16.30767
G1 X107.054 Y117.835 E16.33324
G1 X106.699 Y117.152 E16.35884
G1 X106.418 Y116.437 E16.38439
G1 X106.212 Y115.695 E16.41
G1 X106.084 Y114.937 E16.43557
G1 X106.035 Y114.088 E16.46386
G1 X106.035 Y100.649 E16.91084
G1 X106.043 Y100.303 E16.92235
G1 X106.064 Y99.854 E16.9373
G1 X106.14 Y99.089 E16.96287
G1 X106.354 Y98.122 E16.99581
G1 X106.512 Y97.582 E17.01452
G1 X106.766 Y96.856 E17.04011
G1 X107.094 Y96.16 E17.0657
G1 X107.388 Y95.661 E17.08496
G1 X107.648 Y95.256 E17.10097
G1 X107.224 Y94.697 E17.1243
G1 X106.792 Y94.061 E17.14987
G1 X106.497 Y93.525 E17.17022
G1 X106.084 Y92.695 E17.20106
G1 X105.777 Y91.989 E17.22666
G1 X105.595 Y91.434 E17.24609
G1 X105.342 Y90.55 E17.27667
G1 X105.169 Y89.801 E17.30224
G1 X105.088 Y89.203 E17.32231
G1 X105.002 Y88.284 E17.35301
G1 X104.97 Y87.595 E17.37595
G1 X104.969 Y70.12 E17.95717
G1 X104.978 Y69.75 E17.96948
G1 X104.999 Y69.33 E17.98347
G1 X105.078 Y68.565 E18.00905
G1 X105.291 Y67.61 E18.04159
G1 X105.45 Y67.07 E18.06032
G1 X105.706 Y66.344 E18.08592
G1 X106.035 Y65.649 E18.1115
G1 X106.317 Y65.17 E18.12998
G0 F3600 X106.654 Y65.386
G1 F1500 X106.96 Y64.908 E18.14886
G1 X107.396 Y64.3 E18.17374
G1 X107.895 Y63.743 E18.19862
G1 X108.255 Y63.406 E18.21502
G1 X108.684 Y63.032 E18.23395
G1 X109.273 Y62.571 E18.25883
G1 X109.909 Y62.176 E18.28373
G1 X110.378 Y61.94 E18.30119
G1 X110.893 Y61.705 E18.32002
G1 X111.589 Y61.431 E18.3449
G1 X112.311 Y61.233 E18.3698
G1 X112.789 Y61.146 E18.38596
G1 X113.358 Y61.063 E18.40508
G1 X114.367 Y60.99 E18.43873
G1 X127.83 Y60.989 E18.88651
G1 X127.968 Y60.989 E18.8911
G1 X128.715 Y61.029 E18.91598
G1 X129.454 Y61.148 E18.94088
G1 X130.175 Y61.346 E18.96574
G1 X130.872 Y61.619 E18.99064
G1 X131.535 Y61.965 E19.01551
G1 X132.157 Y62.38 E19.04038
G1 X132.732 Y62.859 E19.06528
G1 X133.252 Y63.397 E19.09016
G1 X133.712 Y63.987 E19.11504
G1 X134.106 Y64.623 E19.13993
G1 X134.431 Y65.297 E19.16482
G1 X134.681 Y66.002 E19.18969
G1 X134.855 Y66.729 E19.21456
G1 X134.95 Y67.471 E19.23944
G1 X134.969 Y67.989 E19.25668
G1 X134.969 Y69.989 E19.3232
G1 X136.969 Y69.989 E19.38972
G1 X137.716 Y70.029 E19.4146
G1 X138.454 Y70.148 E19.43946
G1 X139.176 Y70.346 E19.46436
G1 X139.379 Y70.426 E19.47162
G1 X139.522 Y70.375 E19.47667
G1 X140.249 Y70.201 E19.50153
G1 X140.991 Y70.106 E19.52641
G1 X141.509 Y70.087 E19.54365
G1 X143.509 Y70.087 E19.61017
G1 X143.509 Y68.325 E19.66878
G1 X143.515 Y68.031 E19.67856
G1 X143.525 Y67.793 E19.68648
G1 X143.596 Y67.048 E19.71137
G1 X143.747 Y66.316 E19.73623
G1 X143.975 Y65.603 E19.76113
G1 X144.277 Y64.919 E19.786
G1 X144.651 Y64.271 E19.81088
G1 X145.091 Y63.666 E19.83576
G1 X145.594 Y63.112 E19.86065
G1 X146.153 Y62.615 E19.88553
G1 X146.762 Y62.181 E19.9104
G1 X147.414 Y61.813 E19.9353
G1 X148.101 Y61.518 E19.96017
