;FLAVOR:Marlin
;TIME:7627
;Filament used: 7.27514m
;Layer height: 0.2
;MINX:90.812
;MINY:56.191
;MINZ:0.2
;MAXX:163.397
;MAXY:130.92
;MAXZ:30
;Generated with Cura_SteamEngine 4.3.0
M140 S60
M105
M190 S60
M104 S210
M105
M109 S210
M82 ;absolute extrusion mode
; -- START GCODE -- 
M4002 P1 ;set heat program 1 
M1203 A88 D66 F1200 ;set higher accel and decel 
G28 X0 Y0 ;home XY 
G28 Z0 ;home Z
G91 ;set relative movements 
G0 F100 ;speed 100mm/sec 
G0 E20 ;extrude 20mm of filament
G90 ;absolute movements 
; -- end of START GCODE --
G92 E0
G92 E0
G1 F1800 E-0.6
;LAYER_COUNT:150
;LAYER:0
M107
G0 F3600 X92.466 Y60.968 Z0.2
;TYPE:SKIRT
G1 F1800 E0
G1 F1500 X92.827 Y60.46 E0.02073
G1 X93.316 Y59.84 E0.04699
G1 X94.116 Y59.049 E0.08441
G1 X94.378 Y58.825 E0.09587
G1 X95.004 Y58.343 E0.12215
G1 X95.902 Y57.806 E0.15695
G1 X96.437 Y57.533 E0.17693
G1 X97.157 Y57.21 E0.20318
G1 X98.166 Y56.895 E0.23833
G1 X98.496 Y56.816 E0.24962
G1 X99.272 Y56.672 E0.27587
G1 X100.29 Y56.602 E0.30981
G1 X108.472 Y56.579 E0.58194
G1 X109.261 Y56.617 E0.60822
G1 X110.042 Y56.734 E0.63448
G1 X110.807 Y56.93 E0.66075
G1 X111.548 Y57.202 E0.687
G1 X112.258 Y57.547 E0.71326
G1 X112.501 Y57.698 E0.72277
G1 X112.999 Y57.416 E0.74181
G1 X113.722 Y57.098 E0.76808
G1 X114.474 Y56.855 E0.79436
G1 X115.246 Y56.69 E0.82062
G1 X116.031 Y56.603 E0.84689
G1 X116.297 Y56.606 E0.85574
G1 X116.431 Y56.594 E0.86021
G1 X116.959 Y56.474 E0.87822
G1 X117.389 Y56.389 E0.8928
G1 X117.779 Y56.323 E0.90595
G1 X118.708 Y56.223 E0.93703
G1 X119.378 Y56.191 E0.95934
G1 X120.419 Y56.211 E0.99397
G1 X120.849 Y56.248 E1.00833
G1 X121.688 Y56.366 E1.03651
G1 X122.099 Y56.447 E1.05044
G1 X123.007 Y56.684 E1.08165
G1 X123.495 Y56.843 E1.09872
G1 X124.312 Y57.161 E1.12788
G1 X124.705 Y57.34 E1.14224
G1 X125.521 Y57.771 E1.17294
G1 X125.959 Y58.037 E1.18998
G1 X126.714 Y58.567 E1.22066
G1 X127.004 Y58.343 E1.23285
G1 X127.902 Y57.806 E1.26765
G1 X128.437 Y57.533 E1.28763
G1 X129.157 Y57.21 E1.31387
G1 X130.166 Y56.895 E1.34903
G1 X130.496 Y56.816 E1.36032
G1 X131.272 Y56.672 E1.38657
G1 X132.29 Y56.602 E1.42051
G1 X140.472 Y56.579 E1.69264
G1 X141.261 Y56.617 E1.71892
G1 X142.042 Y56.734 E1.74518
G1 X142.807 Y56.93 E1.77145
G1 X143.548 Y57.202 E1.7977
G1 X144.258 Y57.547 E1.82396
G1 X144.501 Y57.698 E1.83347
G1 X144.999 Y57.416 E1.85251
G1 X145.722 Y57.098 E1.87878
G1 X146.474 Y56.855 E1.90506
G1 X147.246 Y56.69 E1.93132
G1 X148.031 Y56.603 E1.95759
G1 X148.297 Y56.606 E1.96643
G1 X148.431 Y56.594 E1.97091
G1 X148.959 Y56.474 E1.98892
G1 X149.389 Y56.389 E2.0035
G1 X149.779 Y56.323 E2.01665
G1 X150.708 Y56.223 E2.04773
G1 X151.378 Y56.191 E2.07004
G1 X152.419 Y56.211 E2.10467
G1 X152.849 Y56.248 E2.11903
G1 X153.688 Y56.366 E2.14721
G1 X154.099 Y56.447 E2.16114
G1 X155.007 Y56.684 E2.19235
G1 X155.495 Y56.843 E2.20942
G1 X156.312 Y57.161 E2.23858
G1 X156.705 Y57.34 E2.25294
G1 X157.521 Y57.771 E2.28364
G1 X157.959 Y58.037 E2.30068
G1 X158.801 Y58.628 E2.3349
G1 X159.155 Y58.913 E2.35001
G1 X159.719 Y59.414 E2.3751
G1 X160.046 Y59.734 E2.39032
G1 X160.702 Y60.462 E2.42291
G1 X161.001 Y60.839 E2.43892
G1 X161.531 Y61.594 E2.4696
G1 X161.783 Y62.003 E2.48558
G1 X162.236 Y62.853 E2.51761
G1 X162.443 Y63.306 E2.53418
G1 X162.775 Y64.163 E2.56475
G1 X162.881 Y64.493 E2.57627
G1 X163.102 Y65.339 E2.60536
G1 X163.228 Y65.965 E2.62659
G1 X163.362 Y66.957 E2.65989
G1 X163.389 Y67.341 E2.67269
G1 X163.397 Y68.31 E2.70492
G1 X163.367 Y68.864 E2.72337
G1 X163.214 Y70.031 E2.76252
G1 X163.017 Y70.978 E2.79469
G1 X163.017 Y70.995 E2.79526
G1 X162.976 Y71.784 E2.82154
G1 X162.855 Y72.564 E2.84779
G1 X162.656 Y73.328 E2.87405
G1 X162.381 Y74.069 E2.90034
G1 X162.033 Y74.777 E2.92658
G1 X161.866 Y75.043 E2.93702
G1 X162.125 Y75.482 E2.95397
G1 X162.455 Y76.2 E2.98026
G1 X162.71 Y76.947 E3.00651
G1 X162.889 Y77.716 E3.03277
G1 X162.989 Y78.5 E3.05906
G1 X163.012 Y79.095 E3.07886
G1 X163.012 Y86.874 E3.33759
G1 X162.994 Y87.408 E3.35536
G1 X162.964 Y87.845 E3.36993
G1 X162.87 Y88.629 E3.3962
G1 X162.599 Y89.726 E3.43378
G1 X162.417 Y90.285 E3.45333
G1 X162.135 Y91.022 E3.47958
G1 X161.779 Y91.728 E3.50588
G1 X161.358 Y92.388 E3.53191
G1 X160.997 Y92.896 E3.55264
G1 X160.508 Y93.516 E3.5789
G1 X160.086 Y93.933 E3.59864
G1 X160.127 Y93.974 E3.60057
G1 X160.729 Y94.655 E3.6308
G1 X161.011 Y95.014 E3.64598
G1 X161.541 Y95.779 E3.67693
G1 X161.78 Y96.172 E3.69223
G1 X162.239 Y97.046 E3.72507
G1 X162.468 Y97.559 E3.74375
G1 X162.773 Y98.357 E3.77217
G1 X162.898 Y98.747 E3.78579
G1 X163.129 Y99.65 E3.81679
G1 X163.206 Y100.049 E3.8303
G1 X163.331 Y101.033 E3.8633
G1 X163.363 Y101.537 E3.88009
G1 X163.369 Y102.425 E3.90963
G1 X163.34 Y102.999 E3.92874
G1 X163.194 Y104.155 E3.9675
G1 X163 Y105.112 E3.99998
G1 X163 Y105.137 E4.00081
G1 X162.959 Y105.926 E4.02708
G1 X162.838 Y106.706 E4.05334
G1 X162.639 Y107.471 E4.07963
G1 X162.364 Y108.211 E4.10589
G1 X162.015 Y108.919 E4.13214
G1 X161.849 Y109.185 E4.14257
G1 X162.108 Y109.624 E4.15952
G1 X162.438 Y110.342 E4.1858
G1 X162.693 Y111.089 E4.21206
G1 X162.872 Y111.858 E4.23832
G1 X162.972 Y112.642 E4.2646
G1 X162.995 Y113.237 E4.28441
G1 X162.995 Y121.016 E4.54314
G1 X162.975 Y121.568 E4.56151
G1 X162.944 Y122.005 E4.57608
G1 X162.849 Y122.789 E4.60235
G1 X162.583 Y123.86 E4.63905
G1 X162.402 Y124.418 E4.65856
G1 X162.121 Y125.156 E4.68483
G1 X161.767 Y125.861 E4.71107
G1 X161.339 Y126.532 E4.73754
G1 X160.977 Y127.041 E4.75831
G1 X160.488 Y127.66 E4.78455
G1 X159.714 Y128.428 E4.82082
G1 X159.453 Y128.653 E4.83228
G1 X158.829 Y129.137 E4.85854
G1 X157.895 Y129.698 E4.89478
G1 X157.36 Y129.97 E4.91474
G1 X156.639 Y130.292 E4.94101
G1 X155.624 Y130.607 E4.97635
G1 X155.295 Y130.685 E4.9876
G1 X154.519 Y130.828 E5.01384
G1 X153.507 Y130.895 E5.04758
G1 X135.773 Y130.92 E5.63741
G1 X135.462 Y130.914 E5.64776
G1 X134.787 Y130.888 E5.67023
G1 X133.9 Y130.803 E5.69986
G1 X133.374 Y130.722 E5.71756
G1 X132.534 Y130.545 E5.74612
G1 X132.036 Y130.411 E5.76327
G1 X131.302 Y130.174 E5.78892
G1 X130.808 Y129.987 E5.80649
G1 X130.027 Y129.641 E5.8349
G1 X129.564 Y129.405 E5.85219
G1 X128.866 Y129.003 E5.87898
G1 X128.429 Y128.72 E5.89629
G1 X127.772 Y128.244 E5.92328
G1 X127.721 Y128.295 E5.92568
G1 X127.459 Y128.52 E5.93716
G1 X126.834 Y129.004 E5.96345
G1 X125.912 Y129.556 E5.9992
G1 X125.377 Y129.828 E6.01916
G1 X124.656 Y130.15 E6.04542
G1 X123.641 Y130.465 E6.08077
G1 X123.312 Y130.543 E6.09201
G1 X122.536 Y130.686 E6.11826
G1 X121.524 Y130.753 E6.15199
G1 X103.79 Y130.778 E6.74183
G1 X103.478 Y130.772 E6.75221
G1 X102.804 Y130.746 E6.77464
G1 X101.906 Y130.659 E6.80465
G1 X101.379 Y130.577 E6.82239
G1 X100.565 Y130.406 E6.85005
G1 X100.067 Y130.273 E6.8672
G1 X99.301 Y130.025 E6.89398
G1 X98.808 Y129.837 E6.91152
G1 X98.057 Y129.504 E6.93885
G1 X97.594 Y129.269 E6.95612
G1 X96.883 Y128.86 E6.9834
G1 X96.44 Y128.573 E7.00096
G1 X95.777 Y128.093 E7.02818
G1 X95.375 Y127.768 E7.04537
G1 X94.786 Y127.239 E7.0717
G1 X94.409 Y126.865 E7.08937
G1 X93.847 Y126.245 E7.1172
G1 X93.523 Y125.846 E7.13429
G1 X93.05 Y125.198 E7.16098
G1 X92.759 Y124.753 E7.17866
G1 X92.341 Y124.033 E7.20635
G1 X92.106 Y123.573 E7.22353
G1 X91.776 Y122.835 E7.25042
G1 X91.584 Y122.338 E7.26814
G1 X91.329 Y121.559 E7.2954
G1 X91.196 Y121.066 E7.31239
G1 X91.025 Y120.264 E7.33966
G1 X90.941 Y119.738 E7.35738
G1 X90.856 Y118.962 E7.38334
G1 X90.825 Y118.43 E7.40107
G1 X90.812 Y117.976 E7.41617
G1 X90.812 Y100.542 E7.99603
G1 X90.827 Y100.056 E8.0122
G1 X90.858 Y99.559 E8.02877
G1 X90.947 Y98.775 E8.05501
G1 X91.224 Y97.638 E8.09393
G1 X91.405 Y97.08 E8.11344
G1 X91.686 Y96.342 E8.13971
G1 X92.04 Y95.637 E8.16595
G1 X92.461 Y94.976 E8.19201
G1 X92.819 Y94.471 E8.2126
G1 X93.307 Y93.851 E8.23884
G1 X93.856 Y93.283 E8.26512
G1 X94.387 Y92.841 E8.2881
G1 X93.847 Y92.245 E8.31485
G1 X93.523 Y91.846 E8.33194
G1 X93.05 Y91.198 E8.35862
G1 X92.759 Y90.753 E8.37631
G1 X92.341 Y90.033 E8.404
G1 X92.106 Y89.573 E8.42118
G1 X91.776 Y88.835 E8.44807
G1 X91.584 Y88.338 E8.46579
G1 X91.329 Y87.559 E8.49305
G1 X91.196 Y87.066 E8.51003
G1 X91.025 Y86.264 E8.53731
G1 X90.941 Y85.738 E8.55503
G1 X90.856 Y84.962 E8.58099
G1 X90.825 Y84.43 E8.59871
G1 X90.812 Y83.976 E8.61382
G1 X90.812 Y66.542 E9.19368
G1 X90.827 Y66.057 E9.20982
G1 X90.858 Y65.559 E9.22641
G1 X90.947 Y64.775 E9.25266
G1 X91.224 Y63.637 E9.29161
G1 X91.405 Y63.079 E9.31112
G1 X91.686 Y62.341 E9.33739
G1 X92.04 Y61.636 E9.36363
G1 X92.466 Y60.968 E9.38998
G0 F3600 X92.792 Y61.199
G1 F1500 X93.153 Y60.691 E9.4107
G1 X93.63 Y60.088 E9.43628
G1 X94.376 Y59.353 E9.47111
G1 X94.638 Y59.129 E9.48257
G1 X95.248 Y58.661 E9.50815
G1 X96.084 Y58.163 E9.54051
G1 X96.619 Y57.89 E9.56049
G1 X97.321 Y57.576 E9.58607
G1 X98.259 Y57.284 E9.61874
G1 X98.589 Y57.205 E9.63003
G1 X99.345 Y57.065 E9.6556
G1 X100.291 Y57.002 E9.68713
G1 X108.473 Y56.979 E9.95927
G1 X109.241 Y57.017 E9.98484
G1 X110.002 Y57.134 E10.01045
G1 X110.745 Y57.33 E10.03601
G1 X111.465 Y57.602 E10.06161
G1 X112.152 Y57.947 E10.08718
G1 X112.501 Y58.17 E10.10095
G1 X112.697 Y58.038 E10.10881
G1 X113.377 Y57.678 E10.1344
G1 X114.09 Y57.391 E10.15997
G1 X114.83 Y57.179 E10.18557
G1 X115.587 Y57.045 E10.21114
G1 X116.354 Y56.99 E10.23671
G1 X116.454 Y56.993 E10.24004
G1 X116.496 Y56.99 E10.24144
G1 X117.048 Y56.864 E10.26027
G1 X117.455 Y56.784 E10.27407
G1 X117.845 Y56.718 E10.28723
G1 X118.727 Y56.622 E10.31673
G1 X119.397 Y56.59 E10.33904
G1 X120.384 Y56.609 E10.37188
G1 X120.814 Y56.646 E10.38623
G1 X121.611 Y56.759 E10.41301
G1 X122.022 Y56.84 E10.42694
G1 X122.883 Y57.064 E10.45653
G1 X123.371 Y57.223 E10.4736
G1 X124.146 Y57.525 E10.50126
G1 X124.539 Y57.704 E10.51563
G1 X125.313 Y58.113 E10.54474
G1 X125.751 Y58.379 E10.56179
G1 X126.551 Y58.94 E10.59429
G1 X126.714 Y59.071 E10.60124
G1 X127.248 Y58.661 E10.62363
G1 X128.084 Y58.163 E10.656
G1 X128.619 Y57.89 E10.67598
G1 X129.321 Y57.576 E10.70155
G1 X130.259 Y57.284 E10.73423
G1 X130.589 Y57.205 E10.74551
G1 X131.345 Y57.065 E10.77109
G1 X132.291 Y57.002 E10.80262
G1 X140.473 Y56.979 E11.07476
G1 X141.241 Y57.017 E11.10033
G1 X142.002 Y57.134 E11.12594
G1 X142.745 Y57.33 E11.1515
G1 X143.465 Y57.602 E11.1771
G1 X144.152 Y57.947 E11.20267
G1 X144.501 Y58.17 E11.21644
G1 X144.697 Y58.038 E11.2243
G1 X145.377 Y57.678 E11.24989
G1 X146.09 Y57.391 E11.27545
G1 X146.829 Y57.179 E11.30102
G1 X147.587 Y57.045 E11.32663
G1 X148.354 Y56.99 E11.3522
G1 X148.454 Y56.993 E11.35553
G1 X148.496 Y56.99 E11.35693
G1 X149.048 Y56.864 E11.37576
G1 X149.455 Y56.784 E11.38956
G1 X149.845 Y56.718 E11.40271
G1 X150.727 Y56.622 E11.43222
G1 X151.397 Y56.59 E11.45453
G1 X152.384 Y56.609 E11.48737
G1 X152.814 Y56.646 E11.50172
G1 X153.611 Y56.759 E11.52849
G1 X154.022 Y56.84 E11.54243
G1 X154.883 Y57.064 E11.57202
G1 X155.371 Y57.223 E11.58909
G1 X156.146 Y57.525 E11.61675
G1 X156.539 Y57.704 E11.63112
G1 X157.313 Y58.113 E11.66023
G1 X157.751 Y58.379 E11.67728
G1 X158.551 Y58.94 E11.70978
G1 X158.905 Y59.225 E11.72489
G1 X159.44 Y59.7 E11.74869
G1 X159.767 Y60.02 E11.7639
G1 X160.389 Y60.711 E11.79483
G1 X160.688 Y61.088 E11.81083
G1 X161.19 Y61.804 E11.83991
G1 X161.442 Y62.213 E11.85589
G1 X161.873 Y63.019 E11.88629
G1 X162.08 Y63.472 E11.90286
G1 X162.394 Y64.285 E11.93185
G1 X162.5 Y64.615 E11.94337
G1 X162.71 Y65.418 E11.97098
G1 X162.836 Y66.044 E11.99222
G1 X162.963 Y66.985 E12.0238
G1 X162.99 Y67.369 E12.0366
G1 X162.997 Y68.288 E12.06717
G1 X162.967 Y68.842 E12.08562
G1 X162.823 Y69.949 E12.12275
G1 X162.617 Y70.939 E12.15638
G1 X162.617 Y70.995 E12.15825
G1 X162.576 Y71.763 E12.18383
G1 X162.455 Y72.522 E12.20939
G1 X162.257 Y73.265 E12.23497
G1 X161.982 Y73.984 E12.26057
G1 X161.634 Y74.67 E12.28615
G1 X161.398 Y75.036 E12.30064
G1 X161.412 Y75.056 E12.30145
G1 X161.798 Y75.721 E12.32702
G1 X162.113 Y76.423 E12.35262
G1 X162.353 Y77.154 E12.37821
G1 X162.516 Y77.905 E12.40377
G1 X162.6 Y78.67 E12.42936
G1 X162.612 Y79.095 E12.4435
G1 X162.612 Y86.874 E12.70223
G1 X162.595 Y87.381 E12.71911
G1 X162.565 Y87.818 E12.73368
G1 X162.472 Y88.581 E12.75924
G1 X162.218 Y89.602 E12.79423
G1 X162.036 Y90.161 E12.81379
G1 X161.761 Y90.879 E12.83936
G1 X161.412 Y91.564 E12.86493
G1 X161.032 Y92.157 E12.88835
G1 X160.671 Y92.665 E12.90908
G1 X160.194 Y93.268 E12.93465
G1 X159.521 Y93.932 E12.9661
G1 X159.843 Y94.256 E12.98129
G1 X160.414 Y94.902 E13.00997
G1 X160.696 Y95.261 E13.02515
G1 X161.2 Y95.987 E13.05455
G1 X161.439 Y96.38 E13.06985
G1 X161.873 Y97.209 E13.10097
G1 X162.102 Y97.722 E13.11965
G1 X162.392 Y98.479 E13.14662
G1 X162.517 Y98.869 E13.16024
G1 X162.736 Y99.726 E13.18966
G1 X162.813 Y100.125 E13.20317
G1 X162.932 Y101.058 E13.23446
G1 X162.964 Y101.562 E13.25125
G1 X162.97 Y102.404 E13.27926
G1 X162.941 Y102.978 E13.29838
G1 X162.802 Y104.075 E13.33515
G1 X162.6 Y105.071 E13.36895
G1 X162.6 Y105.137 E13.37115
G1 X162.559 Y105.905 E13.39673
G1 X162.438 Y106.665 E13.42233
G1 X162.239 Y107.408 E13.44791
G1 X161.965 Y108.126 E13.47347
G1 X161.617 Y108.812 E13.49905
G1 X161.38 Y109.178 E13.51356
G1 X161.395 Y109.198 E13.51439
G1 X161.781 Y109.863 E13.53996
G1 X162.096 Y110.565 E13.56555
G1 X162.336 Y111.296 E13.59114
G1 X162.499 Y112.047 E13.6167
G1 X162.583 Y112.812 E13.6423
G1 X162.595 Y113.237 E13.65644
G1 X162.595 Y121.016 E13.91517
G1 X162.576 Y121.54 E13.93261
G1 X162.545 Y121.977 E13.94718
G1 X162.451 Y122.74 E13.97275
G1 X162.203 Y123.736 E14.00689
G1 X162.022 Y124.294 E14.0264
G1 X161.747 Y125.013 E14.05201
G1 X161.399 Y125.698 E14.07756
G1 X161.013 Y126.3 E14.10135
G1 X160.651 Y126.809 E14.12212
G1 X160.174 Y127.412 E14.14769
G1 X159.453 Y128.125 E14.18142
G1 X159.192 Y128.35 E14.19288
G1 X158.584 Y128.821 E14.21846
G1 X157.714 Y129.341 E14.25217
G1 X157.179 Y129.613 E14.27213
G1 X156.476 Y129.926 E14.29773
G1 X155.532 Y130.217 E14.33058
G1 X155.203 Y130.295 E14.34183
G1 X154.446 Y130.434 E14.36743
G1 X153.506 Y130.495 E14.39876
G1 X135.772 Y130.52 E14.98859
G1 X135.477 Y130.515 E14.99841
G1 X134.802 Y130.489 E15.02087
G1 X133.961 Y130.408 E15.04898
G1 X133.435 Y130.327 E15.06668
G1 X132.638 Y130.159 E15.09377
G1 X132.14 Y130.025 E15.11092
G1 X131.443 Y129.8 E15.13528
G1 X130.949 Y129.613 E15.15285
G1 X130.208 Y129.285 E15.1798
G1 X129.745 Y129.049 E15.19709
G1 X129.084 Y128.667 E15.22248
G1 X128.647 Y128.384 E15.23979
G1 X128.023 Y127.933 E15.2654
G1 X127.746 Y127.71 E15.27723
G1 X127.46 Y127.992 E15.29059
G1 X127.198 Y128.217 E15.30207
G1 X126.589 Y128.687 E15.32766
G1 X125.731 Y129.199 E15.36089
G1 X125.196 Y129.471 E15.38085
G1 X124.493 Y129.784 E15.40645
G1 X123.549 Y130.075 E15.4393
G1 X123.22 Y130.153 E15.45055
G1 X122.463 Y130.292 E15.47615
G1 X121.523 Y130.353 E15.50748
G1 X103.789 Y130.378 E16.09732
G1 X103.494 Y130.373 E16.10713
G1 X102.82 Y130.347 E16.12956
G1 X101.967 Y130.264 E16.15807
G1 X101.44 Y130.182 E16.17581
G1 X100.669 Y130.019 E16.20202
G1 X100.171 Y129.886 E16.21916
G1 X99.443 Y129.651 E16.2446
G1 X98.95 Y129.463 E16.26215
G1 X98.238 Y129.148 E16.28805
G1 X97.775 Y128.913 E16.30532
G1 X97.1 Y128.525 E16.33121
G1 X96.657 Y128.238 E16.34877
G1 X96.029 Y127.782 E16.37458
G1 X95.627 Y127.457 E16.39178
G1 X95.067 Y126.955 E16.41679
G1 X94.69 Y126.581 E16.43445
G1 X94.157 Y125.993 E16.46085
G1 X93.833 Y125.594 E16.47794
G1 X93.385 Y124.979 E16.50325
G1 X93.094 Y124.534 E16.52094
G1 X92.697 Y123.851 E16.54721
G1 X92.462 Y123.391 E16.56439
G1 X92.149 Y122.691 E16.58989
G1 X91.957 Y122.194 E16.60762
G1 X91.715 Y121.454 E16.63351
G1 X91.582 Y120.961 E16.65049
G1 X91.42 Y120.201 E16.67634
G1 X91.336 Y119.675 E16.69406
G1 X91.256 Y118.938 E16.71871
G1 X91.225 Y118.406 E16.73644
