;FLAVOR:Marlin
;TIME:1955
;Filament used: 1.60793m
;Layer height: 0.2
;MINX:83.998
;MINY:82.204
;MINZ:0.2
;MAXX:142.797
;MAXY:121.795
;MAXZ:22
;Generated with Cura_SteamEngine 4.3.0
M140 S60
M105
M190 S60
M104 S210
M105
M109 S210
M82 ;absolute extrusion mode
; -- START GCODE -- 
M4002 P1 ;set heat program 1 
M1203 A88 D66 F1200 ;set higher accel and decel 
G28 X0 Y0 ;home XY 
G28 Z0 ;home Z
G91 ;set relative movements 
G0 F100 ;speed 100mm/sec 
G0 E20 ;extrude 20mm of filament
G90 ;absolute movements 
; -- end of START GCODE --
G92 E0
G92 E0
G1 F1800 E-0.6
;LAYER_COUNT:110
;LAYER:0
M107
G0 F3600 X89.206 Y91.419 Z0.2
;TYPE:SKIRT
G1 F1800 E0
G1 F1500 X89.569 Y91.066 E0.01684
G1 X90.073 Y90.607 E0.03951
G1 X90.487 Y90.256 E0.05757
G1 X91.008 Y89.844 E0.07966
G1 X91.404 Y89.551 E0.09604
G1 X91.951 Y89.172 E0.11818
G1 X92.414 Y88.874 E0.13649
G1 X92.989 Y88.533 E0.15872
G1 X93.438 Y88.287 E0.17575
G1 X94.035 Y87.984 E0.19802
G1 X94.5 Y87.767 E0.21509
G1 X95.106 Y87.508 E0.23701
G1 X95.597 Y87.317 E0.25453
G1 X96.235 Y87.094 E0.27701
G1 X96.714 Y86.944 E0.2937
G1 X97.356 Y86.765 E0.31587
G1 X97.897 Y86.634 E0.33438
G1 X98.556 Y86.5 E0.35675
G1 X99.055 Y86.416 E0.37358
G1 X99.707 Y86.327 E0.39547
G1 X100.222 Y86.274 E0.41269
G1 X100.899 Y86.227 E0.43526
G1 X101.405 Y86.208 E0.4521
G1 X102.084 Y86.205 E0.47468
G1 X102.635 Y86.222 E0.49302
G1 X103.312 Y86.267 E0.51559
G1 X103.825 Y86.318 E0.53273
G1 X104.478 Y86.405 E0.55464
G1 X105.007 Y86.494 E0.57249
G1 X105.664 Y86.628 E0.59479
G1 X106.154 Y86.745 E0.61154
G1 X106.804 Y86.922 E0.63395
G1 X107.306 Y87.077 E0.65142
G1 X107.933 Y87.294 E0.67349
G1 X108.433 Y87.487 E0.69132
G1 X109.04 Y87.745 E0.71325
G1 X109.496 Y87.956 E0.72997
G1 X110.106 Y88.263 E0.75268
G1 X110.574 Y88.519 E0.77042
G1 X111.133 Y88.85 E0.79203
G1 X111.251 Y88.702 E0.79832
G1 X111.685 Y88.193 E0.82057
G1 X112.048 Y87.796 E0.83846
G1 X112.529 Y87.305 E0.86132
G1 X112.902 Y86.948 E0.8785
G1 X113.402 Y86.501 E0.9008
G1 X113.832 Y86.144 E0.91939
G1 X114.36 Y85.736 E0.94159
G1 X114.766 Y85.442 E0.95826
G1 X115.338 Y85.056 E0.98121
G1 X115.785 Y84.776 E0.99875
G1 X116.369 Y84.437 E1.02121
G1 X116.839 Y84.185 E1.03895
G1 X117.434 Y83.892 E1.06101
G1 X117.898 Y83.683 E1.07794
G1 X118.524 Y83.424 E1.10047
G1 X119.039 Y83.231 E1.11876
G1 X119.681 Y83.017 E1.14127
G1 X120.176 Y82.87 E1.15844
G1 X120.838 Y82.697 E1.1812
G1 X121.353 Y82.581 E1.19876
G1 X122.005 Y82.457 E1.22083
G1 X122.548 Y82.374 E1.2391
G1 X123.226 Y82.294 E1.26181
G1 X123.714 Y82.252 E1.2781
G1 X124.391 Y82.215 E1.30065
G1 X124.921 Y82.204 E1.31828
G1 X125.596 Y82.213 E1.34074
G1 X126.127 Y82.238 E1.35842
G1 X126.788 Y82.292 E1.38047
G1 X127.319 Y82.354 E1.39826
G1 X128 Y82.457 E1.42116
G1 X128.515 Y82.552 E1.43858
G1 X129.163 Y82.695 E1.46065
G1 X129.685 Y82.83 E1.47859
G1 X130.337 Y83.022 E1.50119
G1 X130.808 Y83.177 E1.51768
G1 X131.441 Y83.408 E1.5401
G1 X131.964 Y83.62 E1.55886
G1 X132.585 Y83.899 E1.58151
G1 X133.047 Y84.125 E1.59861
G1 X133.642 Y84.441 E1.62102
G1 X134.098 Y84.704 E1.63853
G1 X134.676 Y85.063 E1.66116
G1 X135.107 Y85.35 E1.67838
G1 X135.655 Y85.743 E1.70081
G1 X136.082 Y86.073 E1.71876
G1 X136.592 Y86.495 E1.74078
G1 X136.978 Y86.836 E1.75791
G1 X137.474 Y87.305 E1.78061
G1 X137.849 Y87.685 E1.79837
G1 X138.312 Y88.187 E1.82108
G1 X138.65 Y88.579 E1.8383
G1 X139.066 Y89.095 E1.86034
G1 X139.379 Y89.511 E1.87766
G1 X139.774 Y90.074 E1.90053
G1 X140.067 Y90.524 E1.91839
G1 X140.408 Y91.089 E1.94034
G1 X140.669 Y91.557 E1.95817
G1 X140.978 Y92.159 E1.98067
G1 X141.197 Y92.623 E1.99774
G1 X141.471 Y93.256 E2.02068
G1 X141.67 Y93.764 E2.03883
G1 X141.89 Y94.389 E2.06086
G1 X142.041 Y94.863 E2.07741
G1 X142.227 Y95.523 E2.10022
G1 X142.358 Y96.061 E2.11863
G1 X142.495 Y96.724 E2.14115
G1 X142.583 Y97.239 E2.15853
G1 X142.673 Y97.893 E2.18048
G1 X142.727 Y98.412 E2.19784
G1 X142.775 Y99.099 E2.22075
G1 X142.794 Y99.608 E2.23769
G1 X142.797 Y100.271 E2.25974
G1 X142.78 Y100.817 E2.27791
G1 X142.735 Y101.503 E2.30077
G1 X142.686 Y102.006 E2.31758
G1 X142.6 Y102.662 E2.33959
G1 X142.507 Y103.213 E2.35817
G1 X142.371 Y103.877 E2.38072
G1 X142.255 Y104.364 E2.39737
G1 X142.078 Y105.013 E2.41974
G1 X141.923 Y105.514 E2.43718
G1 X141.702 Y106.152 E2.45964
G1 X141.507 Y106.658 E2.47768
G1 X141.229 Y107.31 E2.50125
G1 X140.995 Y107.81 E2.51961
G1 X140.692 Y108.401 E2.5417
G1 X140.452 Y108.833 E2.55814
G1 X140.1 Y109.424 E2.58102
G1 X139.804 Y109.884 E2.59921
G1 X139.426 Y110.428 E2.62124
G1 X139.101 Y110.863 E2.6393
G1 X138.671 Y111.398 E2.66213
G1 X138.336 Y111.787 E2.67921
G1 X137.887 Y112.276 E2.70129
G1 X137.512 Y112.658 E2.71909
G1 X137.018 Y113.127 E2.74175
G1 X136.637 Y113.466 E2.75871
G1 X136.113 Y113.902 E2.78138
G1 X135.687 Y114.232 E2.79931
G1 X135.149 Y114.62 E2.82137
G1 X134.714 Y114.912 E2.83879
G1 X134.132 Y115.275 E2.86161
G1 X133.687 Y115.533 E2.87872
G1 X133.097 Y115.849 E2.90098
G1 X132.634 Y116.077 E2.91814
G1 X132.025 Y116.353 E2.94038
G1 X131.506 Y116.566 E2.95904
G1 X130.864 Y116.803 E2.9818
G1 X130.383 Y116.963 E2.99866
G1 X129.733 Y117.156 E3.02121
G1 X129.211 Y117.292 E3.03915
G1 X128.561 Y117.437 E3.0613
G1 X128.044 Y117.534 E3.0788
G1 X127.365 Y117.638 E3.10165
G1 X126.865 Y117.698 E3.1184
G1 X126.203 Y117.756 E3.1405
G1 X125.684 Y117.784 E3.15779
G1 X125.01 Y117.798 E3.18021
G1 X124.446 Y117.79 E3.19897
G1 X123.768 Y117.755 E3.22155
G1 X123.265 Y117.712 E3.23834
G1 X122.597 Y117.634 E3.26071
G1 X122.069 Y117.554 E3.27847
G1 X121.4 Y117.429 E3.30111
G1 X120.892 Y117.317 E3.31841
G1 X120.238 Y117.149 E3.34087
G1 X119.726 Y116.998 E3.35862
G1 X119.086 Y116.786 E3.38105
G1 X118.578 Y116.598 E3.39906
G1 X117.959 Y116.344 E3.42132
G1 X117.505 Y116.14 E3.43787
G1 X116.887 Y115.839 E3.46073
G1 X116.397 Y115.579 E3.47918
G1 X115.816 Y115.243 E3.50151
G1 X115.665 Y115.149 E3.50742
G1 X115.628 Y115.196 E3.50941
G1 X115.194 Y115.712 E3.53184
G1 X114.84 Y116.105 E3.54943
G1 X114.381 Y116.581 E3.57142
G1 X114.023 Y116.93 E3.58805
G1 X113.522 Y117.387 E3.61061
G1 X113.1 Y117.744 E3.62899
G1 X112.576 Y118.158 E3.6512
G1 X112.183 Y118.449 E3.66747
G1 X111.636 Y118.828 E3.6896
G1 X111.173 Y119.126 E3.70791
G1 X110.598 Y119.467 E3.73015
G1 X110.149 Y119.713 E3.74718
G1 X109.552 Y120.016 E3.76944
G1 X109.087 Y120.233 E3.78651
G1 X108.481 Y120.492 E3.80843
G1 X107.99 Y120.683 E3.82595
G1 X107.352 Y120.906 E3.84843
G1 X106.873 Y121.056 E3.86513
G1 X106.231 Y121.235 E3.88729
G1 X105.69 Y121.366 E3.90581
G1 X105.031 Y121.5 E3.92817
G1 X104.532 Y121.584 E3.945
G1 X103.88 Y121.673 E3.96689
G1 X103.365 Y121.726 E3.98411
G1 X102.688 Y121.773 E4.00668
G1 X102.182 Y121.792 E4.02352
G1 X101.503 Y121.795 E4.04611
G1 X100.952 Y121.778 E4.06444
G1 X100.275 Y121.733 E4.08701
G1 X99.762 Y121.682 E4.10416
G1 X99.109 Y121.595 E4.12607
G1 X98.58 Y121.506 E4.14391
G1 X97.923 Y121.372 E4.16621
G1 X97.433 Y121.255 E4.18297
G1 X96.783 Y121.078 E4.20537
G1 X96.281 Y120.923 E4.22285
G1 X95.654 Y120.706 E4.24491
G1 X95.154 Y120.513 E4.26274
G1 X94.547 Y120.255 E4.28468
G1 X94.091 Y120.044 E4.30139
G1 X93.481 Y119.737 E4.3241
G1 X93.013 Y119.481 E4.34184
G1 X92.444 Y119.144 E4.36384
G1 X92.004 Y118.863 E4.3812
G1 X91.455 Y118.486 E4.40335
G1 X91.045 Y118.185 E4.42027
G1 X90.514 Y117.767 E4.44275
G1 X90.111 Y117.426 E4.46031
G1 X89.625 Y116.987 E4.48209
G1 X89.252 Y116.627 E4.49933
G1 X88.782 Y116.142 E4.52179
G1 X88.429 Y115.753 E4.53927
G1 X87.999 Y115.245 E4.5614
G1 X87.672 Y114.831 E4.57895
G1 X87.278 Y114.296 E4.60105
G1 X86.984 Y113.867 E4.61835
G1 X86.619 Y113.295 E4.64091
G1 X86.376 Y112.887 E4.65671
G1 X86.051 Y112.302 E4.67897
G1 X85.786 Y111.78 E4.69844
G1 X85.513 Y111.188 E4.72012
G1 X85.321 Y110.736 E4.73645
G1 X85.075 Y110.1 E4.75913
G1 X84.902 Y109.603 E4.77664
G1 X84.706 Y108.973 E4.79858
G1 X84.571 Y108.482 E4.81552
G1 X84.413 Y107.826 E4.83796
G1 X84.307 Y107.309 E4.85551
G1 X84.196 Y106.657 E4.87751
G1 X84.123 Y106.118 E4.8956
G1 X84.057 Y105.453 E4.91783
G1 X84.024 Y104.966 E4.93406
G1 X84 Y104.306 E4.95603
G1 X83.998 Y103.805 E4.97269
G1 X84.017 Y103.124 E4.99535
G1 X84.053 Y102.56 E5.01415
G1 X84.12 Y101.895 E5.03638
G1 X84.187 Y101.393 E5.05322
G1 X84.295 Y100.746 E5.07504
G1 X84.4 Y100.227 E5.09265
G1 X84.557 Y99.566 E5.11525
G1 X84.693 Y99.068 E5.13242
G1 X84.886 Y98.443 E5.15418
G1 X85.052 Y97.962 E5.1711
G1 X85.291 Y97.336 E5.19339
G1 X85.495 Y96.852 E5.21086
G1 X85.779 Y96.236 E5.23342
G1 X86.021 Y95.754 E5.25136
G1 X86.336 Y95.179 E5.27316
G1 X86.59 Y94.75 E5.28974
G1 X86.954 Y94.176 E5.31235
G1 X87.256 Y93.734 E5.33016
G1 X87.644 Y93.206 E5.35195
G1 X87.954 Y92.811 E5.36865
G1 X88.387 Y92.295 E5.39105
G1 X88.747 Y91.895 E5.40895
G1 X89.206 Y91.419 E5.43095
G0 F3600 X89.494 Y91.696
G1 F1500 X89.838 Y91.362 E5.44689
G1 X90.342 Y90.903 E5.46957
G1 X90.735 Y90.57 E5.4867
G1 X91.256 Y90.158 E5.50879
G1 X91.632 Y89.879 E5.52436
G1 X92.179 Y89.5 E5.5465
G1 X92.618 Y89.218 E5.56385
G1 X93.193 Y88.877 E5.58609
G1 X93.619 Y88.643 E5.60225
G1 X94.216 Y88.34 E5.62452
G1 X94.657 Y88.134 E5.64071
G1 X95.263 Y87.875 E5.66263
G1 X95.729 Y87.694 E5.67925
G1 X96.367 Y87.471 E5.70173
G1 X96.822 Y87.329 E5.71759
G1 X97.464 Y87.15 E5.73975
G1 X97.976 Y87.026 E5.75728
G1 X98.635 Y86.892 E5.77964
G1 X99.109 Y86.812 E5.79563
G1 X99.761 Y86.723 E5.81752
G1 X100.249 Y86.673 E5.83383
G1 X100.926 Y86.626 E5.8564
G1 X101.406 Y86.608 E5.87238
G1 X102.085 Y86.605 E5.89496
G1 X102.609 Y86.621 E5.9124
G1 X103.286 Y86.666 E5.93497
G1 X103.772 Y86.715 E5.95121
G1 X104.425 Y86.802 E5.97312
G1 X104.927 Y86.886 E5.99005
G1 X105.584 Y87.02 E6.01236
G1 X106.049 Y87.131 E6.02826
G1 X106.699 Y87.308 E6.05066
G1 X107.175 Y87.455 E6.06723
G1 X107.802 Y87.672 E6.0893
G1 X108.277 Y87.855 E6.10623
G1 X108.884 Y88.113 E6.12817
G1 X109.316 Y88.313 E6.144
G1 X109.926 Y88.62 E6.16671
G1 X110.37 Y88.863 E6.18355
G1 X110.939 Y89.2 E6.20554
G1 X111.223 Y89.381 E6.21674
G1 X111.245 Y89.351 E6.21798
G1 X111.555 Y88.962 E6.23453
G1 X111.989 Y88.453 E6.25677
G1 X112.334 Y88.076 E6.27377
G1 X112.815 Y87.585 E6.29663
G1 X113.169 Y87.246 E6.31293
G1 X113.669 Y86.799 E6.33524
G1 X114.076 Y86.46 E6.35286
G1 X114.604 Y86.052 E6.37505
G1 X114.99 Y85.774 E6.39087
G1 X115.562 Y85.388 E6.41382
G1 X115.986 Y85.122 E6.43047
G1 X116.57 Y84.783 E6.45293
G1 X117.016 Y84.544 E6.46976
G1 X117.611 Y84.251 E6.49182
G1 X118.051 Y84.052 E6.50788
G1 X118.677 Y83.793 E6.53041
G1 X119.166 Y83.611 E6.54777
G1 X119.808 Y83.397 E6.57028
G1 X120.277 Y83.257 E6.58656
G1 X120.939 Y83.084 E6.60931
G1 X121.427 Y82.974 E6.62595
G1 X122.079 Y82.85 E6.64803
G1 X122.595 Y82.771 E6.66539
G1 X123.273 Y82.691 E6.6881
G1 X123.736 Y82.651 E6.70355
G1 X124.413 Y82.614 E6.7261
G1 X124.916 Y82.604 E6.74284
G1 X125.591 Y82.613 E6.76529
G1 X126.095 Y82.637 E6.78207
G1 X126.756 Y82.691 E6.80413
G1 X127.26 Y82.749 E6.821
G1 X127.941 Y82.852 E6.84391
G1 X128.429 Y82.943 E6.86042
G1 X129.077 Y83.086 E6.88249
G1 X129.572 Y83.213 E6.89949
G1 X130.224 Y83.405 E6.9221
G1 X130.671 Y83.552 E6.93775
G1 X131.304 Y83.783 E6.96016
G1 X131.8 Y83.985 E6.97797
G1 X132.421 Y84.264 E7.00061
G1 X132.859 Y84.479 E7.01684
G1 X133.454 Y84.795 E7.03925
G1 X133.887 Y85.044 E7.05586
G1 X134.465 Y85.403 E7.07849
G1 X134.874 Y85.676 E7.09485
G1 X135.422 Y86.069 E7.11728
G1 X135.827 Y86.381 E7.13428
G1 X136.337 Y86.803 E7.1563
G1 X136.703 Y87.127 E7.17256
G1 X137.199 Y87.596 E7.19526
G1 X137.555 Y87.956 E7.2121
G1 X138.018 Y88.458 E7.23481
G1 X138.339 Y88.831 E7.25118
G1 X138.755 Y89.347 E7.27323
G1 X139.052 Y89.741 E7.28964
G1 X139.447 Y90.304 E7.31251
G1 X139.725 Y90.73 E7.32943
G1 X140.066 Y91.295 E7.35138
G1 X140.313 Y91.74 E7.36831
G1 X140.622 Y92.342 E7.39081
G1 X140.83 Y92.781 E7.40697
G1 X141.104 Y93.414 E7.42991
G1 X141.293 Y93.897 E7.44716
G1 X141.513 Y94.522 E7.4692
G1 X141.656 Y94.972 E7.48491
G1 X141.842 Y95.632 E7.50771
G1 X141.966 Y96.142 E7.52517
G1 X142.103 Y96.805 E7.54769
G1 X142.187 Y97.293 E7.56416
G1 X142.277 Y97.947 E7.58611
G1 X142.328 Y98.44 E7.6026
G1 X142.376 Y99.127 E7.6255
G1 X142.394 Y99.61 E7.64158
G1 X142.397 Y100.273 E7.66363
G1 X142.381 Y100.79 E7.68084
G1 X142.336 Y101.476 E7.7037
G1 X142.289 Y101.954 E7.71968
G1 X142.203 Y102.61 E7.74168
G1 X142.116 Y103.133 E7.75931
G1 X141.98 Y103.797 E7.78186
G1 X141.869 Y104.259 E7.79766
G1 X141.692 Y104.908 E7.82004
G1 X141.545 Y105.383 E7.83657
G1 X141.324 Y106.021 E7.85903
G1 X141.139 Y106.501 E7.87614
G1 X140.861 Y107.153 E7.89971
G1 X140.639 Y107.627 E7.91712
G1 X140.336 Y108.218 E7.93921
G1 X140.109 Y108.629 E7.95483
G1 X139.757 Y109.22 E7.97771
G1 X139.476 Y109.656 E7.99496
G1 X139.098 Y110.2 E8.01699
G1 X138.789 Y110.613 E8.03415
G1 X138.359 Y111.148 E8.05698
G1 X138.042 Y111.517 E8.07316
G1 X137.593 Y112.006 E8.09524
G1 X137.237 Y112.368 E8.11213
G1 X136.743 Y112.837 E8.13478
G1 X136.381 Y113.158 E8.15087
G1 X135.857 Y113.594 E8.17355
G1 X135.453 Y113.908 E8.19056
G1 X134.915 Y114.296 E8.21263
G1 X134.502 Y114.573 E8.22917
G1 X133.92 Y114.936 E8.25198
G1 X133.498 Y115.18 E8.26819
G1 X132.908 Y115.496 E8.29045
G1 X132.469 Y115.713 E8.30674
G1 X131.86 Y115.989 E8.32898
G1 X131.368 Y116.191 E8.34667
G1 X130.726 Y116.428 E8.36943
G1 X130.269 Y116.58 E8.38545
G1 X129.619 Y116.773 E8.408
G1 X129.124 Y116.901 E8.42501
G1 X128.474 Y117.046 E8.44716
G1 X127.983 Y117.139 E8.46378
G1 X127.304 Y117.243 E8.48663
G1 X126.83 Y117.3 E8.5025
G1 X126.168 Y117.358 E8.52461
G1 X125.676 Y117.384 E8.54099
G1 X125.002 Y117.398 E8.56342
G1 X124.467 Y117.39 E8.58121
G1 X123.789 Y117.355 E8.60379
G1 X123.312 Y117.315 E8.61971
G1 X122.644 Y117.237 E8.64208
G1 X122.143 Y117.161 E8.65894
G1 X121.474 Y117.036 E8.68157
G1 X120.992 Y116.929 E8.69799
G1 X120.338 Y116.761 E8.72045
G1 X119.852 Y116.619 E8.73729
G1 X119.212 Y116.407 E8.75972
G1 X118.73 Y116.228 E8.77682
G1 X118.111 Y115.974 E8.79907
G1 X117.68 Y115.781 E8.81478
G1 X117.062 Y115.48 E8.83764
G1 X116.597 Y115.233 E8.85515
G1 X116.016 Y114.897 E8.87748
G1 X115.604 Y114.64 E8.89363
G1 X115.572 Y114.619 E8.8949
G1 X115.322 Y114.938 E8.90838
G1 X114.888 Y115.454 E8.93081
G1 X114.552 Y115.828 E8.94753
G1 X114.093 Y116.304 E8.96952
G1 X113.753 Y116.634 E8.98528
G1 X113.252 Y117.091 E9.00784
G1 X112.853 Y117.43 E9.02525
G1 X112.329 Y117.844 E9.04746
G1 X111.955 Y118.121 E9.06294
G1 X111.408 Y118.5 E9.08507
G1 X110.969 Y118.782 E9.10243
G1 X110.394 Y119.123 E9.12466
G1 X109.968 Y119.357 E9.14083
G1 X109.371 Y119.66 E9.1631
G1 X108.93 Y119.866 E9.17928
G1 X108.324 Y120.125 E9.2012
G1 X107.858 Y120.306 E9.21783
G1 X107.22 Y120.529 E9.24031
G1 X106.765 Y120.671 E9.25616
G1 X106.123 Y120.85 E9.27833
G1 X105.611 Y120.974 E9.29585
G1 X104.952 Y121.108 E9.31822
G1 X104.478 Y121.188 E9.33421
G1 X103.826 Y121.277 E9.35609
G1 X103.338 Y121.327 E9.37241
G1 X102.661 Y121.374 E9.39498
G1 X102.181 Y121.392 E9.41096
G1 X101.502 Y121.395 E9.43354
G1 X100.978 Y121.379 E9.45098
G1 X100.301 Y121.334 E9.47354
G1 X99.815 Y121.285 E9.48979
G1 X99.162 Y121.198 E9.5117
G1 X98.66 Y121.114 E9.52863
G1 X98.003 Y120.98 E9.55093
G1 X97.538 Y120.869 E9.56683
G1 X96.888 Y120.692 E9.58924
G1 X96.412 Y120.545 E9.60581
G1 X95.785 Y120.328 E9.62788
G1 X95.31 Y120.145 E9.64481
G1 X94.703 Y119.887 E9.66674
G1 X94.271 Y119.687 E9.68258
G1 X93.661 Y119.38 E9.70529
G1 X93.217 Y119.137 E9.72213
G1 X92.648 Y118.8 E9.74412
G1 X92.23 Y118.533 E9.76062
G1 X91.681 Y118.156 E9.78277
G1 X91.293 Y117.871 E9.79878
G1 X90.762 Y117.453 E9.82126
G1 X90.379 Y117.129 E9.83794
G1 X89.893 Y116.69 E9.85972
G1 X89.539 Y116.349 E9.87607
G1 X89.069 Y115.864 E9.89854
G1 X88.735 Y115.495 E9.91509
G1 X88.305 Y114.987 E9.93723
G1 X87.994 Y114.594 E9.9539
